!!!COM:	Anonymous
!!!OTL:	Puisque &agrave; chascun ris / Pardonnez moi / L'autrier m'aloie
!!!AGN:	Song; Chanson
!!!SCT:	Ano3030
!!!SCA:	Ano3030
!!!SMS:	Dijon Chansonnier
!!!folio:	
!!!voices:	4
**kern	**kern	**kern	**kern
*staff4	*staff3	*staff2	*staff1
*Ivox	*Ivox	*Ivox	*Ivox
*I"Contratenor	*I"Tenor2	*I"Tenor1	*I"Superius
*I'Ct	*I'T2	*I'T1	*I'S
*clefF4	*clefGv2	*clefGv2	*clefG2
*k[b-]	*k[b-]	*k[b-]	*k[]
*M2/1	*M2/1	*M2/1	*M2/1
*met(C|)	*met(C|)	*met(C|)	*met(C|)
=1-	=1-	=1-	=1-
1r	1r	0r	1r
!LO:TX:i:Y=24:t=Puis	!LO:TX:Y=24:t=L'autrier m'aloie	!	!LO:TX:Y=24:t=Puisque &agrave; chascun ris...
1GG	1G	.	1g
=2	=2	=2	=2
1BB-	1G	0r	1g
1C	1G	.	1e
=3	=3	=3	=3
2.AA	1A	0r	2.c
4BB-	.	.	4d
2C	1A	.	2e
[2D	.	.	[2f
=4	=4	=4	=4
4D]	1B-	1r	4f]
!	!	!LO:TX:Y=24:t=Pardonnez moi	!
4C	.	.	4e
1BB-	.	.	1d
.	1B-	1G	.
4AA	.	.	4c
4GG	.	.	4B-i
=5	=5	=5	=5
1FF	1c	1A	1A
1FF	1c	1A	1r
=6	=6	=6	=6
0GG	1.B-	1G	1d
.	.	[1d	2G
.	2A	.	2A
=7	=7	=7	=7
0r	1G	2d]	2.B-i
.	.	2c	.
.	.	.	4c
.	1G	[1B-	2.d
.	.	.	4e
=8	=8	=8	=8
0D	1F	2B-]	2f
.	.	4A	2.f
.	.	4G	.
.	1F	1A	.
.	.	.	4e
.	.	.	4d
.	.	.	4c
=9	=9	=9	=9
1.E-i	[0G	0G	1B-i
.	.	.	1r
2D	.	.	.
=10	=10	=10	=10
1BB-	0G]	1r	1d
1C	.	1c	1e
=11	=11	=11	=11
1AA	1r	2c	1f
.	.	2c	.
1GG	1G	1B-	[1g
=12	=12	=12	=12
1r	1G	1G	2g]
.	.	.	1b-i
1GG	1G	[1B-	.
.	.	.	4a
.	.	.	4g
=13	=13	=13	=13
1D	1A	2B-]	1f
.	.	2A	.
1C	1A	1A	1r
=14	=14	=14	=14
*	*	*	*M2/1
*	*	*	*met(O)
0BB-	1B-	1F	3%2.f
.	1B-	1G	3e
.	.	.	3%2d
=15	=15	=15	=15
3%4AAV	1c	0A	3%2.c
.	1c	.	3d
3%2AAZ	.	.	3%2e
=16	=16	=16	=16
3%2.BB-V	1.B-	0r	3%2.d
3C	.	.	3e
3%2DZ	.	.	3%2f
.	2A	.	.
=17	=17	=17	=17
3%2.E-iV	1G	0r	3%2.g
3D	1G	.	3f
3BB-	.	.	3d
3CZ	.	.	3e
=18	=18	=18	=18
3%2.DV	1F	0r	3%2.f
3C	1F	.	3e
3%2AAZ	.	.	3%2c
=19	=19	=19	=19
*	*	*	*M2/1
*	*	*	*met(C|)
2.GG	0G	1r	2.B-i
4AA	.	.	4c
2BB-	.	1G	2d
[2C	.	.	[2e-i
=20	=20	=20	=20
2C]	0r	1A	2e-]
1D	.	.	1f
.	.	1B-	.
2BB-	.	.	2d
=21	=21	=21	=21
2.C	1r	1G	2.e-i
4BB-	.	.	4d
1GG	1G	[1d	2B-i
.	.	.	[2b-i
=22	=22	=22	=22
0r	1G	2d]	2b-]
.	.	2c	2a
.	1d	1B-	2g
.	.	.	[2g
=23	=23	=23	=23
0r	1d	1G	4g]
.	.	.	4f
.	.	.	4e
.	.	.	4d
.	1c	1A	2.f#i
.	.	.	4e
=24	=24	=24	=24
1GG	1d	0G	1g
2.BB-	1B-	.	1r
4C	.	.	.
=25	=25	=25	=25
1D	1A	0r	1f#
2E-i	1G	.	2g
[2C	.	.	[2e
=26	=26	=26	=26
2C]	1A	0r	2e]
1D	.	.	1f
.	1B-	.	.
[2E-i	.	.	[2g
=27	=27	=27	=27
2E-]	1c	0r	2g]
2.F	.	.	2.a
.	1A	.	.
4G	.	.	4b-i
2A	.	.	2cc
=28	=28	=28	=28
2G	0B-	0r	2b-i
1E	.	.	1g
2D	.	.	2f
=29	=29	=29	=29
1.F	0A	1r	2.a
.	.	.	4g
.	.	1c	2f
[2C	.	.	[2e
=30	=30	=30	=30
2C]	0r	2.c	2e]
2D	.	.	1d
.	.	4B-	.
1E	.	1G	.
.	.	.	2c#i
=31	=31	=31	=31
1D	1r	1F	1d
1GG	1G	[1B-	1r
=32	=32	=32	=32
1BB-	1G	2B-]	1d
.	.	2A	.
1C	1G	[1G	2c
.	.	.	[2e
=33	=33	=33	=33
0AA	1A	2G]	4e]
.	.	.	4d
.	.	2F	2.f
.	1A	2F	.
.	.	.	4e
.	.	2E	2c
=34	=34	=34	=34
1GG	1B-	0G	1B-i
1G	1B-	.	2r
.	.	.	[2b-i
=35	=35	=35	=35
1E	1c	0r	2b-]
.	.	.	4a
.	.	.	4g
1F	1c	.	4a
.	.	.	4g
.	.	.	4f
.	.	.	4e
=36	=36	=36	=36
1G	1.B-	1r	2d
.	.	.	1g
1D	.	1d	.
.	2A	.	2f
=37	=37	=37	=37
0E-i	1G	1B-	2g
.	.	.	2.b-i
.	1G	1c	.
.	.	.	4a
.	.	.	[2g
=38	=38	=38	=38
0D	0A	[0dl	2g]
.	.	.	2f#i
.	.	.	2f#i
.	.	.	2e
=39	=39	=39	=39
1r	[0Gl	0d_	[0gl
1GG	.	.	.
=40	=40	=40	=40
0GGl	0G]	0d]	0g]
==	==	==	==
*-	*-	*-	*-
!!!RDF**kern: l=long note in original notation
!!!RDF**kern: i=editorial accidental
!!!RDF**kern: V=start of tuplet marker
!!!RDF**kern: Z=end of tuplet marker
!!!ENC:	Chris Gage 03-05-2015
!!!END:	2015/03/13/
!!!EED:	Jesse Rodin
!!!EEV:	2016/02/23/
!!!ONB:	Translated from MusicXML and edited on 2016/02/23/ by Craig Sapp
!!muse2ps: C^@{COM}\n@{SMS} @{folio}^v85,85,85,150Q16
